X:1
T:O Life in Whom Is Life Indeed
T:O Life in Whom Is Life Indeed
T:From “Baptiste,” ca. 1920
T:Jessie Brown Pounds, 1920
T:Public Domain Courtesy of the Cyber Hymnal™
C:From “Baptiste,” ca. 1920
Z:Public Domain
Z:Courtesy of the Cyber Hymnal™
%%score ( 1 2 ) ( 3 4 )
L:1/8
M:3/4
K:F
V:1 treble 
V:2 treble 
V:3 bass 
V:4 bass 
V:1
 C2 | (C2 F2) [EG]2 | (A2 c2) [Fc]2 | (d2 e2) [Fd]2 | (c2 A2) [FA]2 | (c2 G2) [Ec]2 | %6
w: 1.~O|Life * in|whom * is|life * in-|deed, * Through|whom * our|
w: 2.~O|Light * be-|yond * men’s|high- * est|thought, * Be-|yond * all|
w: 3.~O|Good * be-|yond * the|dreams * of|men, * Who|mak- * est|
 (c2 A2) [CF]2 | ([=B,D]2 [CE]2) [DF]2 | [EG]4 C2 | (C2 F2) [EG]2 | (A2 c2) [Fc]2 | (d2 f2) [Fd]2 | %12
w: best * de-|sires * are|freed, Stir|Thou * that|life * in|us, * we|
w: wis- * dom|seers * have|wrought, Ne’er|yet * that|light * in|vain * was|
w: stained * lives|white * a-|gain, Thou|Christ, * be-|stow * Thy|pure- * ness|
 (c2 d2) [FA]2 | (B2 c2) [EG]2 | ([FA]2 [_Ec]2) [DB]2 | A4 [EG]2 | F4 ||"^Refrain" C2 | %18
w: plead; * We|come * to|Thee, * we|come to|Thee!|We|
w: sought; * We|come * to|Thee, * we|come to|Thee!||
w: when * We|come * to|Thee, * we|come to|Thee!||
 (z2 B2) [FB]2 | [FA]4 F2 | (z2 c2) [Ed]2 | [Fc]4 C2 | (z2 B2) [FB]2 | [FA]6 | [FA]2 [DF]2 [EG]2 | %25
w: * come|* to|* Thee,|* we|* come|to|Thee, We come|
w: |||||||
w: |||||||
 [CF]4 |] %26
w: to|
w: |
w: |
V:2
 C2 | C4 x2 | F4 x2 | F4 x2 | F4 x2 | E4 x2 | F4 x2 | x6 | x4 C2 | C4 x2 | F4 x2 | F4 x2 | F4 x2 | %13
 G4 x2 | x6 | (C2 D2) x2 | F4 || x2 | D4 x2 | x6 | E4 x2 | x6 | D4 x2 | x6 | x6 | x4 |] %26
V:3
 [F,A,]2 | [F,A,]4 [C,C]2 | (C2 A,2) [F,A,]2 | (B,2 D2) [D,B,]2 | (A,2 F,2) F,2 | %5
w: ~|~ ~|~ * ~|~ * ~|~ * ~|
 (G,2 C2) [C,B,]2 | (A,2 C2) [F,A,]2 | G,4 [G,,=B,]2 | [C,_B,]4 [C,B,]2 | [F,A,]4 [C,C]2 | %10
w: ~ * ~|~ * ~|~ ~|~ ~|~ ~|
 (C2 A,2) [F,A,]2 | (B,2 D2) [D,B,]2 | A,4 [D,D]2 | ([G,D]2 [C,D]2) [C,C]2 | %14
w: ~ * ~|~ * ~|~ ~|~ * ~|
 ([F,C]2 [^F,A,]2) [G,B,]2 | (C2 =B,2) [C,_B,]2 | [F,A,]4 || z2 | z2 [F,B,]2 [F,D]2 | [F,C]4 z2 | %20
w: ~ * ~|~ * ~|~||Come to|Thee,|
 z2 [C,B,]2 [C,B,]2 | [F,A,]4 z2 | z2 [F,B,]2 [F,D]2 | [F,C]6 | [D,=B,]2 [D,B,]2 [C,_B,]2 | %25
w: come to|Thee,|Come to|Thee,|we come to|
 [F,A,]4 |] %26
w: Thee.|
V:4
 x2 | x6 | F,4 x2 | B,,4 x2 | F,4 F,2 | C,4 x2 | F,4 x2 | G,4 x2 | x6 | x6 | F,4 x2 | B,,4 x2 | %12
 (F,2 D,2) x2 | x6 | x6 | C,4 x2 | x4 || x2 | x6 | x6 | x6 | x6 | x6 | x6 | x6 | x4 |] %26

